!! J.S. Bach "Fuga" from Sonata No. 3, for solo violin, BWV 1005.
!! From 'Neue Ausgabe Saemtlicher Werke' Serie VI: Kammermusikwerke,
!! Band 1 ('Werke fuer Violine') Baerenreiter Kassel (Basel) 1958; pp.43-49
!! This file has been error-checked using the double-entry method.
!! NOTE:  This 'monophonic' work has been recoded here as a four-part work.
!! NOTE:  A considerable degree of latitude has been exercised in the
!!        assignment of parts and voices.
**kern	**kern	**kern	**kern
*M2/2	*M2/2	*M2/2	*M2/2
2r	2g	2r	2r
=1	=1	=1	=1
1r	4a	1r	1r
.	8g	.	.
.	8f	.	.
.	4e	.	.
.	4f	.	.
=2	=2	=2	=2
1r	2g	1r	1r
.	4d	.	.
.	4e	.	.
=3	=3	=3	=3
1r	4f	1r	1r
.	4e	.	.
.	4f	.	.
.	8g	.	.
.	8f	.	.
=4	=4	=4	=4
1r	4e	2r	1r
.	8f	.	.
.	8g	.	.
.	2a	2cc	.
=5	=5	=5	=5
1r	2g#	4ee	1r
.	.	8dd	.
.	.	8cc	.
.	2gn	4b	.
.	.	4cc#	.
=6	=6	=6	=6
1r	2f#	2dd	1r
.	2fn	4a	.
.	.	4b	.
=7	=7	=7	=7
1r	4e	4cc	1r
.	4d	4b	.
.	4e	4cc	.
.	4f#	8dd	.
.	.	8cc	.
=8	=8	=8	=8
1r	4g	4b	1r
.	4fn	8cc	.
.	.	8dd	.
.	4g	[2ee	.
.	4e	.	.
=9	=9	=9	=9
1r	4f	2ee]	1r
.	4e	.	.
.	4f	[2dd	.
.	4d	.	.
=10	=10	=10	=10
1r	2e	4dd]	2r
.	.	4b	.
.	2e	4ee	2gg
.	.	4dd	.
=11	=11	=11	=11
2A	2e	2cc#	4aa
.	.	.	8gg
.	.	.	8ff
2A	2a	2ccn	4ee
.	.	.	4ff#
=12	=12	=12	=12
2G	2d	2b	2gg
2G	2r	2b-	4dd
.	.	.	4ee
=13	=13	=13	=13
1r	1d	4a	4ff
.	.	4g	4ee
.	.	4a	4ff
.	.	4bn	8gg
.	.	.	8ff
=14	=14	=14	=14
2A	2e	2cc	4ee
.	.	.	4dd
2r	2a	2cc	4ee
.	.	.	4ff
=15	=15	=15	=15
2r	2e	2b	4gg
.	.	.	4ff
2A	2e	2cc#	4gg
.	.	.	8aa
.	.	.	8gg
=16	=16	=16	=16
1r	2d	2dd	4ff
.	.	.	4gg
.	2f	4ccn	2aa
.	.	4dd	.
=17	=17	=17	=17
1r	2e	4ee	2gg#
.	.	8dd	.
.	.	8cc	.
.	2r	4b	2ggn
.	.	4cc#	.
=18	=18	=18	=18
1r	2d	2dd	2ff#
.	2r	4a	2ffn
.	.	4b	.
=19	=19	=19	=19
1r	2a	4cc	2ee
.	.	4b	.
.	2d	4cc	2ff#
.	.	8dd	.
.	.	8cc	.
=20	=20	=20	=20
1r	2g	2b	4r
.	.	.	8gg
.	.	.	8ffn
.	2r	2r	4ee
.	.	.	4dd
=21	=21	=21	=21
1r	1r	4g	4cc#
.	.	4r	8aa
.	.	.	8gg
.	.	4r	4aa
.	.	4g	4cc#
=22	=22	=22	=22
1r	1r	4f	4dd
.	.	2.r	8ff
.	.	.	8ee
.	.	.	4dd
.	.	.	4ccn
=23	=23	=23	=23
1r	1r	4f	4b
.	.	2r	8gg
.	.	.	8ff
.	.	.	4gg
.	.	4f	4b
=24	=24	=24	=24
1r	2r	4e	4cc
.	.	4f	4dd
.	2c	2g	2ee
=25	=25	=25	=25
1r	4d	2f#	2a
.	8c	.	.
.	8B	.	.
.	4A	2fn	2dd
.	4B	.	.
=26	=26	=26	=26
1r	2c	2e	8r
.	.	.	8g
.	.	.	8a
.	.	.	8b
.	4G	2e-	2cc
.	4A	.	.
=27	=27	=27	=27
1r	4B-	2d	1r
.	4A	.	.
.	4B-	2en	.
.	8c	.	.
.	8B-	.	.
=28	=28	=28	=28
1r	2A	4f	1r
.	.	4e	.
.	2Bn	4f	.
.	.	8g	.
.	.	8f	.
=29	=29	=29	=29
1r	4c	2e	1r
.	4B	.	.
.	4c	2f#	.
.	8d	.	.
.	8c	.	.
=30	=30	=30	=30
1r	4B	2g	2r
.	4A	.	.
.	2B-	2g	2dd
=31	=31	=31	=31
1r	2A	4a	2cc#
.	.	8g	.
.	.	8f	.
.	2r	4e	2ccn
.	.	4f#	.
=32	=32	=32	=32
1r	2G	2g	2b
.	2r	4d	2b-
.	.	4e	.
=33	=33	=33	=33
1r	2d	4f	2a
.	.	4e	.
.	2G	4f	2bn
.	.	8g	.
.	.	8f	.
=34	=34	=34	=34
1r	4c	4e	4r
.	2.r	2.r	8cc
.	.	.	8b
.	.	.	4a
.	.	.	4g
=35	=35	=35	=35
1r	4c	1r	4f#
.	2r	.	8dd
.	.	.	8cc
.	.	.	4dd
.	4c	.	4f#
=36	=36	=36	=36
1r	4B-	1r	4g
.	2.r	.	8b-
.	.	.	8a
.	.	.	4g
.	.	.	4fn
=37	=37	=37	=37
1r	4B-	1r	4e
.	2r	.	8cc
.	.	.	8b-
.	.	.	4cc
.	4B-	.	4e
=38	=38	=38	=38
1r	4A	1r	4f
.	2.r	.	8a
.	.	.	8g
.	.	.	8f
.	.	.	8g
.	.	.	8e
.	.	.	8f
=39	=39	=39	=39
1r	8B-	1r	8d
.	4.r	.	8a
.	.	.	8dd
.	.	.	8cc
.	2r	.	8b
.	.	.	8a
.	.	.	8g
.	.	.	8f
=40	=40	=40	=40
1r	4c	1r	4e
.	2.r	.	8cc
.	.	.	8b
.	.	.	8a
.	.	.	8cc
.	.	.	8ee
.	.	.	8g
=41	=41	=41	=41
1r	8d	1r	8f
.	4.r	.	8a
.	.	.	8ff
.	.	.	8ee
.	2r	.	8dd
.	.	.	8cc
.	.	.	8b
.	.	.	8a
=42	=42	=42	=42
1r	8e	1r	8g
.	4.r	.	{16a
.	.	.	16b
.	.	.	8cc}
.	.	.	8dd
.	2r	.	8ee
.	.	.	8ff
.	.	.	8gg
.	.	.	8b-
=43	=43	=43	=43
1r	8f	1r	8a
.	4.r	.	8ee
.	.	.	8aa
.	.	.	8gg
.	2r	.	{8ff
.	.	.	16gg
.	.	.	16aa}
.	.	.	{8dd
.	.	.	16ee
.	.	.	16ff}
=44	=44	=44	=44
1r	8f	2r	8b
.	4.r	.	8dd
.	.	.	8ee
.	.	.	8ff
.	4e	4cc	2gg
.	4d	4b-	.
=45	=45	=45	=45
8c#	8e	8a	8r
4.r	4.r	4.r	8aa
.	.	.	8gg
.	.	.	8ff
4cn	4e	4a	4ee
4r	4r	4r	4ff#
=46	=46	=46	=46
4B	2r	8g	4dd
.	.	8gg	.
4r	.	8ffn	2.r
.	.	8ee	.
4B-	4g	4dd	.
4r	4r	4ee	.
=47	=47	=47	=47
4A	4f	4cc	4ee
2.r	2.r	2.r	8ff
.	.	.	8ee
.	.	.	4ff
.	.	.	8gg
.	.	.	8ff
=48	=48	=48	=48
4G	4a	4cc	4ee
2.r	2.r	8g	2.r
.	.	8f	.
.	.	4g	.
.	.	8a	.
.	.	8g	.
=49	=49	=49	=49
1r	4f	4a	4ee
.	8f	2.r	4r
.	8e	.	.
.	4f	.	4dd
.	8g	.	4r
.	8f	.	.
=50	=50	=50	=50
1r	4e	4r	4dd
.	2.r	8cc	4r
.	.	8b	.
.	.	4a	4cc
.	.	4r	8dd
.	.	.	8ee
=51	=51	=51	=51
1r	4d	4cc	4ff
.	4r	4r	8ff
.	.	.	8ee
.	4g	4b	4ff
.	4r	4r	8gg
.	.	.	8ff
=52	=52	=52	=52
1r	4r	4cc	4ee
.	8c	2.r	2.r
.	8d	.	.
.	8e	.	.
.	8g	.	.
.	8f	.	.
.	8a	.	.
=53	=53	=53	=53
4r	4g	4cc	4ee
8B-	2r	2r	2r
8A	.	.	.
4B-	.	.	.
4r	4g	4cc	4ee
=54	=54	=54	=54
4A	4a	4cc	4ff
2.r	8d	2.r	2.r
.	8e	.	.
.	8f	.	.
.	8g	.	.
.	8f	.	.
.	8g	.	.
=55	=55	=55	=55
4r	4a	4dd	4ff#
8c	2r	2r	2r
8B	.	.	.
4c	.	.	.
4r	4a	4cc	4ff#
=56	=56	=56	=56
4r	1r	4b	4gg
4B	.	4r	4r
4e	.	2b	2gg
4d	.	.	.
=57	=57	=57	=57
4c#	2e	2a	2gg
4A	.	.	.
4d	2r	2a	2ff
4cn	.	.	.
=58	=58	=58	=58
4B	2g	2dd	2ff
4G	.	.	.
4c	2g	2cc	2ee
4B-	.	.	.
=59	=59	=59	=59
4A	4f	4cc	4ee
2.r	2.r	2.r	8dd
.	.	.	8ee
.	.	.	8ff
.	.	.	8gg
.	.	.	8aa
.	.	.	8cc
=60	=60	=60	=60
8G	8f	1r	8b
4.r	4.r	.	{8dd
.	.	.	8cc
.	.	.	8b
2r	2r	.	8a
.	.	.	8g
.	.	.	8f}
.	.	.	8dd
=61	=61	=61	=61
1r	1r	1r	8gg
.	.	.	8b
.	.	.	8cc
.	.	.	8e
.	.	.	{8d
.	.	.	8cc
.	.	.	8ff}
.	.	.	8b
=62	=62	=62	=62
8A-	8e-	1r	8cc
4.r	4.r	.	8dd
.	.	.	8ee-
.	.	.	8ff
2r	2r	.	8gg
.	.	.	8aan
.	.	.	8bbn
.	.	.	8ccc
=63	=63	=63	=63
1r	1r	1r	8ff#
.	.	.	{8ee-
.	.	.	8dd
.	.	.	8cc
.	.	.	8b
.	.	.	8cc}
.	.	.	8f#
.	.	.	8An
=64	=64	=64	=64
1r	1r	1r	8G
.	.	.	8c
.	.	.	8e
.	.	.	8g
.	.	.	8cc
.	.	.	8ee
.	.	.	8gg
.	.	.	8ee
=65	=65	=65	=65
1r	2.r	1r	8cc
.	.	.	8g
.	.	.	8e
.	.	.	8c
.	.	.	4G
.	4f	.	4b
=66	=66	=66	=66
8c	8e	1r	{8cc
4.r	4.r	.	16gg
.	.	.	16ff
.	.	.	8ee}
.	.	.	8gg
2r	2r	.	8cc
.	.	.	8ee
.	.	.	8g
.	.	.	8cc
=67	=67	=67	=67
1r	1r	1r	8e
.	.	.	8g
.	.	.	8c
.	.	.	8e
.	.	.	8G
.	.	.	8ee
.	.	.	8dd
.	.	.	8cc
=68	=68	=68	=68
1r	1r	1r	{16dd
.	.	.	16gg
.	.	.	16ff#
.	.	.	16ee
.	.	.	8dd}
.	.	.	8gg
.	.	.	8b
.	.	.	8dd
.	.	.	8g
.	.	.	8b
=69	=69	=69	=69
1r	1r	1r	8d
.	.	.	8g
.	.	.	8B
.	.	.	8d
.	.	.	8G
.	.	.	8dd
.	.	.	8cc
.	.	.	8b
=70	=70	=70	=70
1r	1r	1r	{8cc
.	.	.	16aa
.	.	.	16gg
.	.	.	8ff#}
.	.	.	8aa
.	.	.	8cc
.	.	.	8ff#
.	.	.	8a
.	.	.	8cc
=71	=71	=71	=71
1r	1r	1r	8f#
.	.	.	8a
.	.	.	8d
.	.	.	8f#
.	.	.	8a
.	.	.	8cc
.	.	.	8ff#
.	.	.	8aa
=72	=72	=72	=72
1r	1r	1r	8G
.	.	.	8d
.	.	.	8f#
.	.	.	8cc
.	.	.	8b
.	.	.	8g
.	.	.	8e
.	.	.	8g
=73	=73	=73	=73
1r	1r	1r	{8c#
.	.	.	16e
.	.	.	16fn
.	.	.	8g}
.	.	.	8e
.	.	.	8b-
.	.	.	8g
.	.	.	8cc#
.	.	.	8ee
=74	=74	=74	=74
1r	1r	1r	8f
.	.	.	8a
.	.	.	8gg
.	.	.	8cc#
.	.	.	8dd
.	.	.	8a
.	.	.	8b-
.	.	.	8dd
=75	=75	=75	=75
1r	1r	1r	{8g#
.	.	.	16bn
.	.	.	16ccn
.	.	.	8dd}
.	.	.	8b
.	.	.	8ff
.	.	.	8dd
.	.	.	8gg#
.	.	.	8bb
=76	=76	=76	=76
1r	1r	1r	8e
.	.	.	8cc
.	.	.	8ee
.	.	.	8gg#
.	.	.	8aa
.	.	.	8ccc
.	.	.	8ff#
.	.	.	8aa
=77	=77	=77	=77
1r	1r	1r	{8dd#
.	.	.	16ff#
.	.	.	16ggn
.	.	.	8aa}
.	.	.	8ff#
.	.	.	8dd#
.	.	.	8b
.	.	.	8cc
.	.	.	8d#
=78	=78	=78	=78
1r	1r	1r	8e
.	.	.	8b
.	.	.	8dd#
.	.	.	8aa
.	.	.	{8gg
.	.	.	16bb
.	.	.	16aa
.	.	.	8gg}
.	.	.	8ee
=79	=79	=79	=79
1r	1r	1r	{8cc#
.	.	.	16b-
.	.	.	16a
.	.	.	8g}
.	.	.	8e
.	.	.	{8c#
.	.	.	16d
.	.	.	16e}
.	.	.	{8A
.	.	.	16Bn
.	.	.	16c#}
=80	=80	=80	=80
1r	1r	1r	8d
.	.	.	8a
.	.	.	8cc#
.	.	.	8gg
.	.	.	{8ff
.	.	.	16aa
.	.	.	16gg
.	.	.	8ff}
.	.	.	8dd
=81	=81	=81	=81
1r	1r	1r	{8b
.	.	.	16a-
.	.	.	16g
.	.	.	8f}
.	.	.	8d
.	.	.	{8B
.	.	.	16c
.	.	.	16d}
.	.	.	{8G
.	.	.	16A
.	.	.	16B}
=82	=82	=82	=82
1r	1r	1r	8c
.	.	.	8g
.	.	.	8b
.	.	.	8ff
.	.	.	{8ee
.	.	.	16gg
.	.	.	16ff
.	.	.	8ee}
.	.	.	8cc
=83	=83	=83	=83
1r	1r	1r	{8ff
.	.	.	16dd
.	.	.	16cc
.	.	.	8b}
.	.	.	8dd
.	.	.	{8g#
.	.	.	16a
.	.	.	16b}
.	.	.	{8e
.	.	.	16f#
.	.	.	16g#}
=84	=84	=84	=84
1r	1r	1r	8A
.	.	.	8e
.	.	.	8g#
.	.	.	8dd
.	.	.	8cc
.	.	.	8a
.	.	.	8fn
.	.	.	8a
=85	=85	=85	=85
1r	1r	1r	8B
.	.	.	8d
.	.	.	8g#
.	.	.	8ee
.	.	.	8dd
.	.	.	8b
.	.	.	8g#
.	.	.	8b
=86	=86	=86	=86
1r	1r	1r	8c
.	.	.	8e
.	.	.	8g#
.	.	.	8ff
.	.	.	8ee
.	.	.	8cc
.	.	.	8a
.	.	.	8cc
=87	=87	=87	=87
1r	1r	1r	{8d
.	.	.	16aa
.	.	.	16gg
.	.	.	8ff}
.	.	.	8ee
.	.	.	{8dd
.	.	.	16bb-
.	.	.	16aa
.	.	.	8bb-}
.	.	.	8dd
=88	=88	=88	=88
1r	1r	1r	{8e
.	.	.	16dd
.	.	.	16ee
.	.	.	8ff}
.	.	.	8dd
.	.	.	8gg#
.	.	.	8dd
.	.	.	8bbn
.	.	.	8dd
=89	=89	=89	=89
1r	1r	1r	{8e
.	.	.	16cc
.	.	.	16dd
.	.	.	8ee}
.	.	.	8cc
.	.	.	8aa
.	.	.	8ee
.	.	.	8ccc
.	.	.	8ee
=90	=90	=90	=90
1r	1r	1r	{8e
.	.	.	16b
.	.	.	16cc
.	.	.	8dd}
.	.	.	8b
.	.	.	8gg#
.	.	.	8ee
.	.	.	8ddd
.	.	.	8ee
=91	=91	=91	=91
1r	1r	1r	{8e
.	.	.	16a
.	.	.	16b
.	.	.	8cc}
.	.	.	8dd#
.	.	.	8ff#
.	.	.	8aa
.	.	.	8ccc
.	.	.	8ddd#
=92	=92	=92	=92
1r	1r	1r	8eee
.	.	.	8bb
.	.	.	8gg#
.	.	.	8ee
.	.	.	4e
.	.	.	4ee
=93	=93	=93	=93
1r	2r	1r	4ff
.	.	.	8ee
.	.	.	8dd
.	2a	.	4cc
.	.	.	4dd
=94	=94	=94	=94
1r	4cc	1r	2ee
.	8b	.	.
.	8a	.	.
.	4g#	.	4b
.	4a	.	4cc
=95	=95	=95	=95
1r	2b	1r	4dd
.	.	.	4cc
.	4f#	.	4dd
.	4g#	.	8ee
.	.	.	8dd
=96	=96	=96	=96
1r	4a	1r	2cc
.	4gn	.	.
.	4a	.	[2ff
.	8b-	.	.
.	8a	.	.
=97	=97	=97	=97
1r	4g	1r	4ff]
.	2.r	.	8ee
.	.	.	8ff
.	.	.	8gg
.	.	.	8ee
.	.	.	8ff
.	.	.	8gg
=98	=98	=98	=98
1r	2g	2r	4cc#
.	.	.	8b
.	.	.	8a
.	4f	2dd	2aa
.	8e	.	.
.	8d	.	.
=99	=99	=99	=99
1r	4g	4dd	4bb-
.	4a	4r	8aa
.	.	.	8gg
.	2d	2b-	4ff
.	.	.	4gg
=100	=100	=100	=100
2r	4f	2a	2aa
.	8e	.	.
.	8d	.	.
4c#	4e	4a	4ee
4r	4d	4a	4ff
=101	=101	=101	=101
1r	2e	4cc#	4gg
.	.	8dd	4ff
.	.	8cc#	.
.	2e	4b	4gg
.	.	4cc#	8aa
.	.	.	8gg
=102	=102	=102	=102
1r	2d	4dd	2ff
.	.	4ccn	.
.	2g	4dd	2bb-
.	.	8ee-	.
.	.	8dd	.
=103	=103	=103	=103
1r	2e	2cc#	4bb-
.	.	.	8aa
.	.	.	8gg
.	2e-	2ccn	8aa
.	.	.	8bb-
.	.	.	8aa
.	.	.	8gg
=104	=104	=104	=104
1r	2d	4cc	2ff#
.	.	8b-	.
.	.	8a	.
.	2r	8b-	2gg
.	.	8dd	.
.	.	8cc	.
.	.	8b-	.
=105	=105	=105	=105
1r	2d	2a	4gg
.	.	.	8ffn
.	.	.	8ee
.	2d	4a	2ff
.	.	4bn	.
=106	=106	=106	=106
1r	4e	4cc	2ee
.	4d	4b	.
.	4e	4cc	2aa
.	4f#	8dd	.
.	.	8cc	.
=107	=107	=107	=107
1r	2g	4b	1r
.	.	4cc	.
.	4r	4dd	.
.	4g	4ee	.
=108	=108	=108	=108
1r	4a	4ff	1r
.	4g	4ee	.
.	4a	4ff	.
.	4b	8gg	.
.	.	8ff	.
=109	=109	=109	=109
2r	4cc	2ee	2r
.	4b	.	.
4c	4a	4e	4ee
4d	4r	4r	8dd
.	.	.	8cc
=110	=110	=110	=110
4e	4g#	1r	4b
8d	4r	.	4cc
8c	.	.	.
4B	2gn	.	2dd
4c	.	.	.
=111	=111	=111	=111
2d	2f#	2a	1r
4A	2fn	2r	.
4B	.	.	.
=112	=112	=112	=112
4c	2e	1r	1r
4B	.	.	.
4c	2f#	.	.
8d	.	.	.
8c	.	.	.
=113	=113	=113	=113
4B	2g	1r	1r
8c	.	.	.
8d	.	.	.
4e	2g	.	.
4d	.	.	.
=114	=114	=114	=114
2c#	4a	1r	1r
.	8g	.	.
.	8f	.	.
2cn	4e	.	.
.	4f#	.	.
=115	=115	=115	=115
2B	2g	1r	1r
2B-	4d	.	.
.	4e	.	.
=116	=116	=116	=116
2A	4f	1r	1r
.	4e	.	.
[2d	4f	.	.
.	8g	.	.
.	8f	.	.
=117	=117	=117	=117
4d]	2e	1r	1r
8c	.	.	.
8B	.	.	.
2c	4e	.	.
.	4f#	.	.
=118	=118	=118	=118
2B	4g	1r	1r
.	4f#	.	.
[2e	4g	.	.
.	8a	.	.
.	8g	.	.
=119	=119	=119	=119
4e]	2fn	1r	1r
8d	.	.	.
8c	.	.	.
[2d	4f	.	.
.	8g	.	.
.	8f	.	.
=120	=120	=120	=120
4d]	2e	1r	1r
8c	.	.	.
8B	.	.	.
[2c	4e	.	.
.	8f	.	.
.	8e	.	.
=121	=121	=121	=121
4c]	2d	2r	2r
8B	.	.	.
8A	.	.	.
4B	2r	2g	2dd
4G	.	.	.
=122	=122	=122	=122
4c	1r	4g	4ee
4d	.	4r	8dd
.	.	.	8cc
2e	.	4b	2gg
.	.	4cc	.
=123	=123	=123	=123
2d	1r	2dd	2ff#
2r	.	4a	2ffn
.	.	4b	.
=124	=124	=124	=124
1r	2a	4cc	2ee
.	.	4b	.
.	2d	4cc	2ff#
.	.	8dd	.
.	.	8cc	.
=125	=125	=125	=125
1r	2g	4b	2gg
.	.	4a	.
.	2e	4b	2gg
.	.	8cc	.
.	.	8b	.
=126	=126	=126	=126
2c#	2e	2a	4gg
.	.	.	8ff
.	.	.	8ee
2d	2r	2a	4ff
.	.	.	8gg
.	.	.	8ff
=127	=127	=127	=127
4d	2g#	2b	2ee
8cn	.	.	.
8B	.	.	.
4c	2e	2a	2ee
8d	.	.	.
8c	.	.	.
=128	=128	=128	=128
2B	4f#	1r	2dd#
.	4e	.	.
2B	4f#	.	2ddn
.	4g#	.	.
=129	=129	=129	=129
2A	2a	1r	2cc#
2A	4e	.	2ccn
.	4f#	.	.
=130	=130	=130	=130
2G	4g	1r	2b
.	4f#	.	.
2A	4g	.	2cc#
.	8a	.	.
.	8g	.	.
=131	=131	=131	=131
2d	2f#	1r	4dd
.	.	.	8ccn
.	.	.	8b
2d	2fn	.	4a
.	.	.	4b
=132	=132	=132	=132
2A	2e	1r	4cc
.	.	.	4b
2d	2f#	.	4cc
.	.	.	8dd
.	.	.	8cc
=133	=133	=133	=133
2G	4g	1r	2b
.	8fn	.	.
.	8e	.	.
2G	4d	.	2b-
.	4e	.	.
=134	=134	=134	=134
2d	4f	1r	2a
.	4e	.	.
2G	4f	.	2bn
.	8g	.	.
.	8f	.	.
=135	=135	=135	=135
2c	2e	2r	2cc
2B-	4d	2dd	2gg
.	4e	.	.
=136	=136	=136	=136
4A	4f	4dd	4aa
4r	4g	4dd	8gg
.	.	.	8ff
2A	2a	2cc	4ee
.	.	.	4ff#
=137	=137	=137	=137
2G	2d	2b	2gg
2r	2r	4dd	2r
.	.	4ee	.
=138	=138	=138	=138
2r	1r	4ff	1r
.	.	4ee	.
4a	.	4ff	.
4b	.	8gg	.
.	.	8ff	.
=139	=139	=139	=139
4cc	1r	2ee	1r
4b	.	.	.
4e	.	4cc	.
4f	.	8dd	.
.	.	8cc	.
=140	=140	=140	=140
4g	1r	2b	1r
4f	.	.	.
4B	.	4g	.
4c	.	8a	.
.	.	8g	.
=141	=141	=141	=141
4d	1r	2f	1r
4c	.	.	.
4d	.	[2b-	.
8e	.	.	.
8d	.	.	.
=142	=142	=142	=142
4c	1r	2b-]	1r
4B-	.	.	.
4c	.	[2a	.
8d	.	.	.
8c	.	.	.
=143	=143	=143	=143
2B-	1r	2a]	2r
2B-	.	2g	4dd
.	.	.	4ee
=144	=144	=144	=144
2A	2a	2dd	4ff
.	.	.	4ee
2G	2d	2b-	4ff
.	.	.	8gg
.	.	.	8ff
=145	=145	=145	=145
4G	4g	4b-	4ee
4A	4g	2.r	4cc#
2B-	4f	.	2dd
.	8g	.	.
.	8f	.	.
=146	=146	=146	=146
2G	4e	1r	2dd
.	4f	.	.
2A	4g	.	2cc#
.	8a	.	.
.	8g	.	.
=147	=147	=147	=147
2d	2f#	2r	2dd
2r	2r	2dd	2r
=148	=148	=148	=148
1r	1r	4ee	2r
.	.	8dd	.
.	.	8cc	.
.	.	4b	2gg
.	.	4cc	.
=149	=149	=149	=149
1r	1r	2dd	4bb
.	.	.	8aa
.	.	.	8gg
.	.	4a	4ff#
.	.	4b	4gg
=150	=150	=150	=150
1r	1r	4cc	2aa
.	.	4b	.
.	.	4cc	4ee
.	.	8dd	4ff#
.	.	8cc	.
=151	=151	=151	=151
1r	1r	2b	4gg
.	.	.	4ff#
.	.	[2ee	4gg
.	.	.	8aa
.	.	.	8gg
=152	=152	=152	=152
1r	2r	2ee]	4ff#
.	.	.	8gg
.	.	.	8aa
.	2g	2dd	2bb
=153	=153	=153	=153
1r	4a	2cc#	2ee
.	8g	.	.
.	8f	.	.
.	4e	2ccn	2aa
.	4f#	.	.
=154	=154	=154	=154
2r	2g	2b	8r
.	.	.	8aa
.	.	.	8gg
.	.	.	8ff#
2G	4d	2b-	2gg
.	4e	.	.
=155	=155	=155	=155
2d	4f	2a	2ffn
.	4e	.	.
2G	4f	2bn	2r
.	8g	.	.
.	8f	.	.
=156	=156	=156	=156
2c	2e	2b	4ee
.	.	.	4dd#
2c	2e	2a	4ee
.	.	.	8ff#
.	.	.	8ee
=157	=157	=157	=157
2B	4f#	2r	2dd#
.	4e	.	.
2B	4f#	2ddn	2bb
.	4g#	.	.
=158	=158	=158	=158
2A	2a	2cc	4ccc
.	.	.	8bb
.	.	.	8aa
2c	2e	2cc	4gg
.	.	.	4aa
=159	=159	=159	=159
2G	2e	2b	2bb
2B	2f#	2dd#	4ff#
.	.	.	4gg
=160	=160	=160	=160
2A	2f#	2cc#	4aa
.	.	.	4gg
2B	2f#	2dd#	4aa
.	.	.	8bb
.	.	.	8aa
=161	=161	=161	=161
1r	2e	4ee	2gg
.	.	4ddn	.
.	4e	4ccn	[2gg
.	4d	4b	.
=162	=162	=162	=162
2c	2e	2a	4gg]
.	.	.	8aa
.	.	.	8gg
2r	2r	2r	4ff#
.	.	.	8gg
.	.	.	8ee
=163	=163	=163	=163
2G	2e	2b	4.bb
.	.	.	8ccc
4r	4r	4r	4bb
4A	4e	4cc	4aa
=164	=164	=164	=164
2B	2e	2b	2gg
2r	2d#	2a	2ff#T
=165	=165	=165	=165
1r	4e	4r	4ee
.	2.r	8gg	2.r
.	.	8ffn	.
.	.	8ee	.
.	.	8gg	.
.	.	8dd	.
.	.	8gg	.
=166	=166	=166	=166
1r	1r	8cc#	1r
.	.	8bb-	.
.	.	8gg	.
.	.	8ee	.
.	.	8cc#	.
.	.	8ee	.
.	.	8a	.
.	.	8cc#	.
=167	=167	=167	=167
1r	1r	8d	1r
.	.	8a	.
.	.	8cc#	.
.	.	8gg	.
.	.	8ff	.
.	.	8ee	.
.	.	8dd	.
.	.	8ccn	.
=168	=168	=168	=168
1r	1r	8b	1r
.	.	8a-	.
.	.	8f	.
.	.	8d	.
.	.	8B	.
.	.	8d	.
.	.	8G	.
.	.	8f	.
=169	=169	=169	=169
1r	1r	8c	1r
.	.	8e	.
.	.	8A	.
.	.	8g	.
.	.	8d	.
.	.	8f	.
.	.	8B	.
.	.	8an	.
=170	=170	=170	=170
1r	1r	8e	1r
.	.	8g	.
.	.	8c	.
.	.	8b-	.
.	.	8f	.
.	.	8a	.
.	.	8d	.
.	.	8cc	.
=171	=171	=171	=171
1r	1r	8g	1r
.	.	8bn	.
.	.	8dd	.
.	.	8gg	.
.	.	8dd	.
.	.	8b	.
.	.	8g	.
.	.	8e	.
=172	=172	=172	=172
1r	1r	8c#	1r
.	.	8a	.
.	.	8g	.
.	.	8f	.
.	.	8e	.
.	.	8cn	.
.	.	8f#	.
.	.	8c	.
=173	=173	=173	=173
1r	1r	8B	1r
.	.	8g	.
.	.	8fn	.
.	.	8e	.
.	.	8d	.
.	.	8B-	.
.	.	8e	.
.	.	8B-	.
=174	=174	=174	=174
1r	1r	8A	1r
.	.	8c	.
.	.	8d	.
.	.	8e	.
.	.	8f	.
.	.	8A	.
.	.	8Bn	.
.	.	8f	.
=175	=175	=175	=175
1r	1r	8c	1r
.	.	8e	.
.	.	8f#	.
.	.	8g#	.
.	.	8a	.
.	.	8c#	.
.	.	8d#	.
.	.	8a	.
=176	=176	=176	=176
1r	1r	8e	1r
.	.	8gn	.
.	.	8a	.
.	.	8b	.
.	.	8cc	.
.	.	8e	.
.	.	8f#	.
.	.	8cc	.
=177	=177	=177	=177
1r	1r	8g	1r
.	.	8b	.
.	.	8cc#	.
.	.	8dd#	.
.	.	8ee	.
.	.	8g#	.
.	.	8a#	.
.	.	8ee	.
=178	=178	=178	=178
1r	1r	8b	1r
.	.	8ddn	.
.	.	8ee	.
.	.	8ff#	.
.	.	8gg	.
.	.	8b	.
.	.	8cc#	.
.	.	8gg	.
=179	=179	=179	=179
1r	1r	8dd	1r
.	.	8ff#	.
.	.	8aa	.
.	.	8ddd	.
.	.	8aa	.
.	.	8ff#	.
.	.	8dd	.
.	.	8b	.
=180	=180	=180	=180
1r	1r	8g#	1r
.	.	8ee	.
.	.	8dd	.
.	.	8cc	.
.	.	8b	.
.	.	8gn	.
.	.	8cc#	.
.	.	8g	.
=181	=181	=181	=181
1r	1r	8f#	1r
.	.	8dd	.
.	.	8ccn	.
.	.	8b	.
.	.	8a	.
.	.	8fn	.
.	.	8b	.
.	.	8f	.
=182	=182	=182	=182
1r	1r	8e	1r
.	.	8g	.
.	.	8a	.
.	.	8b	.
.	.	8cc	.
.	.	8e	.
.	.	8f#	.
.	.	8cc	.
=183	=183	=183	=183
1r	1r	8g	1r
.	.	8b	.
.	.	8e	.
.	.	8dd	.
.	.	8a	.
.	.	8cc	.
.	.	8f#	.
.	.	8ee	.
=184	=184	=184	=184
1r	1r	8b	1r
.	.	8dd	.
.	.	8g	.
.	.	8ff	.
.	.	8cc	.
.	.	8ee	.
.	.	8a	.
.	.	8gg	.
=185	=185	=185	=185
1r	1r	8dd	1r
.	.	8ff#	.
.	.	8a	.
.	.	8dd	.
.	.	8f#	.
.	.	8a	.
.	.	8d	.
.	.	8cc	.
=186	=186	=186	=186
1r	1r	8b	2r
.	.	8ee	.
.	.	8dd	.
.	.	8cc	.
.	.	8b	4gg
.	.	8d	.
.	.	8cc	4aa
.	.	8d	.
=187	=187	=187	=187
1r	1r	8dd	4bb
.	.	8d	.
.	.	8cc	8aa
.	.	8b	8gg
.	.	8a	4ff#
.	.	8d	.
.	.	8b	4gg
.	.	8d	.
=188	=188	=188	=188
1r	1r	8cc	2aa
.	.	8d	.
.	.	8b	.
.	.	8d	.
.	.	8cc	4ee
.	.	8d	.
.	.	8dd	4ff#
.	.	8cc	.
=189	=189	=189	=189
1r	1r	8b	4gg
.	.	8d	.
.	.	8a	4ff#
.	.	8d	.
.	.	8b	4gg
.	.	8d	.
.	.	4cc#	8aa
.	.	.	8gg
=190	=190	=190	=190
1r	1r	8dd	4ff#
.	.	8d	.
.	.	8dd	4gg
.	.	8d	.
.	.	8ccn	4aa
.	.	8d	.
.	.	8dd	4aa
.	.	8d	.
=191	=191	=191	=191
1r	1r	8ee	4gg
.	.	8d	.
.	.	8ee	4aa
.	.	8d	.
.	.	8dd	4bb
.	.	8d	.
.	.	8ee	4bb
.	.	8d	.
=192	=192	=192	=192
1r	1r	8ff#	4aa
.	.	8d	.
.	.	8ff#	4bb
.	.	8d	.
.	.	8ee	4ccc
.	.	8d	.
.	.	8ff#	4ccc
.	.	8d	.
=193	=193	=193	=193
1r	1r	8gg	4bb
.	.	8d	.
.	.	8gg	4ccc
.	.	8d	.
.	.	8ff#	4ddd
.	.	8d	.
.	.	8ffn	4ddd
.	.	8d	.
=194	=194	=194	=194
1r	1r	8ee	4eee
.	.	8d	.
.	.	4ff#	8ddd
.	.	.	8ccc
.	.	8gg	4bb
.	.	8d	.
.	.	8gg	4ccc#
.	.	8d	.
=195	=195	=195	=195
1r	1r	8ff#	4ddd
.	.	8d	.
.	.	8ff#	4ddd
.	.	8d	.
.	.	8ffn	4aa
.	.	8d	.
.	.	8ff	4bb
.	.	8d	.
=196	=196	=196	=196
1r	1r	8ee	4ccc
.	.	8d	.
.	.	8ee	4bb
.	.	8d	.
.	.	8ee-	4ccc
.	.	8d	.
.	.	4ee-	8ddd
.	.	.	8ccc
=197	=197	=197	=197
1r	1r	8dd	4bb
.	.	8d	.
.	.	8cc	4aa
.	.	8d	.
.	.	8dd	4bb
.	.	8d	.
.	.	8een	4bb
.	.	8dd	.
=198	=198	=198	=198
1r	1r	8cc#	4bb
.	.	8d	.
.	.	8b	4bb
.	.	8d	.
.	.	8ccn	4aa
.	.	8d	.
.	.	8dd	4aa
.	.	8cc	.
=199	=199	=199	=199
1r	1r	8b	4aa
.	.	8d	.
.	.	8a	4aa
.	.	8d	.
.	.	8b-	4gg
.	.	8d	.
.	.	8cc	4gg
.	.	8b-	.
=200	=200	=200	=200
1r	1r	8a	4gg
.	.	8d	.
.	.	8bn	4gg
.	.	8d	.
.	.	8cc	4ff#
.	.	8d	.
.	.	8dd	4ff#
.	.	8cc	.
=201	=201	=201	=201
2G	2d	2b	2gg
2r	2d	2r	2r
=202	=202	=202	=202
1r	4B	1r	1r
.	8c	.	.
.	8d	.	.
.	4e	.	.
.	4d	.	.
=203	=203	=203	=203
1r	2c	1r	1r
.	4f	.	.
.	4e	.	.
=204	=204	=204	=204
1r	4d	1r	1r
.	8e	.	.
.	8d	.	.
.	4c	.	.
.	4d	.	.
=205	=205	=205	=205
1r	4e	2r	1r
.	8d	.	.
.	8c	.	.
.	4B	2g	.
.	4c	.	.
=206	=206	=206	=206
1r	2d	4f#	1r
.	.	8g	.
.	.	8a	.
.	2d#	4b	.
.	.	4a	.
=207	=207	=207	=207
1r	2e	2g	1r
.	2e	4cc	.
.	.	4b	.
=208	=208	=208	=208
1r	2f	4a	1r
.	.	8b	.
.	.	8a	.
.	4r	4g	.
.	4f#	4a	.
=209	=209	=209	=209
1r	4g	2b	2r
.	4fn	.	.
.	4e	2b	2gg
.	4d	.	.
=210	=210	=210	=210
2c	2e	2cc	4ee
.	.	.	8ff
.	.	.	8gg
2A	2e	2cc#	4aa
.	.	.	4gg
=211	=211	=211	=211
2r	2d	2dd	2ff
2G	2g	2dd	4bb-
.	.	.	4aa
=212	=212	=212	=212
2c	2g	2ee-	4gg
.	.	.	8aa
.	.	.	8gg
4r	4r	4r	4ff
4c	4g	4een	4gg
=213	=213	=213	=213
2f	1r	4ff	2aa
.	.	4ee	.
2f#	.	4dd	2r
.	.	4cc	.
=214	=214	=214	=214
2g	2r	4b	2r
.	.	8cc	.
.	.	8dd	.
2c	2g	4ee	2gg
.	.	4dd	.
=215	=215	=215	=215
1r	2f	2cc	2aa-
.	2d	4ff	2aan
.	.	4ee	.
=216	=216	=216	=216
1r	2g	4dd	2bb-
.	.	8ee	.
.	.	8dd	.
.	2r	4cc	4r
.	.	4dd	4bbn
=217	=217	=217	=217
2c	2g	2ee	4ccc
.	.	.	4bb-
2e-	2cc	2r	4aa
.	.	.	4gg
=218	=218	=218	=218
2d	2cc	1r	4ff#
.	.	.	8ee
.	.	.	8dd
2r	4b-	.	2gg
.	8a	.	.
.	8g	.	.
=219	=219	=219	=219
2.r	2e	2cc#	4gg
.	.	.	8aa
.	.	.	8bb-
.	4r	4r	4aa
4A	4e	4cc#	4gg
=220	=220	=220	=220
2d	1r	4dd	2ff
.	.	4ccn	.
2d	.	4b-	2ff
.	.	4a	.
=221	=221	=221	=221
2d	4g#	2bn	2ee
.	8f#	.	.
.	8e	.	.
4c	2e	2a	2ee
8B	.	.	.
8A	.	.	.
=222	=222	=222	=222
1r	2d#	4a	2ff#
.	.	8b	.
.	.	8cc	.
.	4r	4b	2r
.	4d#	4a	.
=223	=223	=223	=223
1r	4e	4g	2r
.	4fn	4r	.
.	4e	2b	2gg
.	4dn	.	.
=224	=224	=224	=224
4c#	2e	2a	2gg
8B	.	.	.
8A	.	.	.
2r	2d	2a	4ff
.	.	.	8ee
.	.	.	8dd
=225	=225	=225	=225
1r	4d	2b	2gg#
.	8e	.	.
.	8f	.	.
.	4e	4r	4r
.	4d	4b-	4ggn
=226	=226	=226	=226
2c#	2e	2a	4gg
.	.	.	8ff
.	.	.	8ee
2d	2r	4a	2ff
.	.	8bn	.
.	.	8ccn	.
=227	=227	=227	=227
2B	2g	2dd	4ff
.	.	.	8ee
.	.	.	8dd
2cn	2g	2cc	4ee
.	.	.	8ff
.	.	.	8ee
=228	=228	=228	=228
2r	4f	2r	4dd
.	4e	.	8ee
.	.	.	8ff
2G	2d	2b	4gg
.	.	.	4ff
=229	=229	=229	=229
2c	1r	4g	2ee
.	.	8a	.
.	.	8b	.
2r	.	4cc	4aa
.	.	4b	4gg
=230	=230	=230	=230
1r	1r	2a	4ff#
.	.	.	8gg
.	.	.	8ff#
.	.	4dd	4ee
.	.	4cc	4ff#
=231	=231	=231	=231
1r	1r	4b	2gg
.	.	8cc	.
.	.	8b	.
.	.	4a	4gg
.	.	4b	4ffn
=232	=232	=232	=232
1r	1r	2cc	4ee
.	.	.	8ff
.	.	.	8ee
.	.	4r	4dd
.	.	4b-	4ee
=233	=233	=233	=233
1r	1r	4a	4ff
.	.	8b-	8gg
.	.	8a	8ff
.	.	4g	4ee
.	.	8a	8ff
.	.	8g	8ee
=234	=234	=234	=234
1r	1r	4f	4dd
.	.	8g	8ee
.	.	8f	8dd
.	.	4e	[2cc
.	.	8f	.
.	.	8e	.
=235	=235	=235	=235
2r	1r	2d	4cc]
.	.	.	8dd
.	.	.	8cc
2G	.	2g	4b
.	.	.	8a
.	.	.	8b
=236	=236	=236	=236
2A-	2r	2g	4cc
.	.	.	8dd
.	.	.	8ee-
2An	2f	2cc	4ff
.	.	.	4ee-
=237	=237	=237	=237
2B-	2f	2.r	2dd
4r	4r	.	4gg
4Bn	4g	4dd	4ff
=238	=238	=238	=238
2c	2g	2cc	4ee
.	.	.	8ff
.	.	.	8ee
4r	4r	4r	4dd
4c#	4g	4b-	4ee
=239	=239	=239	=239
2d	2f	4a	2ff
.	.	8bn	.
.	.	8cc	.
4d	4r	4b	4ff
4cn	4d	4a	4ff
=240	=240	=240	=240
4B	4g	4dd	4ff
8c	4r	4r	4r
8d	.	.	.
4c	4g	4cc	4ee
4B-	4r	4r	4r
=241	=241	=241	=241
2A	2f#	1r	4ee-
.	.	.	8dd
.	.	.	8cc
2r	2r	.	4aa
.	.	.	4gg
=242	=242	=242	=242
2c	2d	2a	4ff#
.	.	.	8gg
.	.	.	8ff#
2r	2r	2r	8een
.	.	.	8gg
.	.	.	8ff#
.	.	.	8aa
=243	=243	=243	=243
4r	4r	2r	4gg
4B	4g	.	4dd
4c	4g	4cc	4ee
4A	4f#	4r	4cc
=244	=244	=244	=244
2G	2g	1r	4.cc
.	.	.	8dd
2G	2d	.	4.bT
.	.	.	8cc
=245	=245	=245	=245
4r	1r	1r	4cc
8c	.	.	2.r
8d	.	.	.
8e	.	.	.
8c	.	.	.
8f	.	.	.
8d	.	.	.
=246	=246	=246	=246
8g	1r	1r	1r
8e	.	.	.
8c	.	.	.
8e	.	.	.
8g	.	.	.
8b-	.	.	.
8a	.	.	.
8g	.	.	.
=247	=247	=247	=247
8a	1r	1r	1r
8f	.	.	.
8d	.	.	.
8e	.	.	.
8f#	.	.	.
8d	.	.	.
8g	.	.	.
8e	.	.	.
=248	=248	=248	=248
8a	1r	1r	1r
8f#	.	.	.
8d	.	.	.
8f#	.	.	.
8a	.	.	.
8cc	.	.	.
8b	.	.	.
8a	.	.	.
=249	=249	=249	=249
8b	1r	1r	1r
8dd	.	.	.
8g	.	.	.
8a	.	.	.
8b	.	.	.
8g	.	.	.
8cc	.	.	.
8a	.	.	.
=250	=250	=250	=250
8dd	1r	1r	1r
8b	.	.	.
8g	.	.	.
8b	.	.	.
8dd	.	.	.
8ff	.	.	.
8ee	.	.	.
8dd	.	.	.
=251	=251	=251	=251
8ee	1r	1r	1r
8cc	.	.	.
8g	.	.	.
8cc	.	.	.
8ee	.	.	.
8gg	.	.	.
8ff#	.	.	.
8ee	.	.	.
=252	=252	=252	=252
8ff#	1r	1r	1r
8cc	.	.	.
8a	.	.	.
8cc	.	.	.
8ff#	.	.	.
8aa	.	.	.
8gg	.	.	.
8ff#	.	.	.
=253	=253	=253	=253
8gg	1r	1r	1r
8dd	.	.	.
8b	.	.	.
8dd	.	.	.
8gg	.	.	.
8bb	.	.	.
8aa	.	.	.
8gg	.	.	.
=254	=254	=254	=254
8aa	1r	1r	1r
8ff#	.	.	.
8cc	.	.	.
8ff#	.	.	.
8aa	.	.	.
8ccc	.	.	.
8bb	.	.	.
8aa	.	.	.
=255	=255	=255	=255
8bb	1r	1r	1r
8gg	.	.	.
8dd	.	.	.
8gg	.	.	.
8bb	.	.	.
8ddd	.	.	.
8gg	.	.	.
8bb	.	.	.
=256	=256	=256	=256
8ccc	1r	1r	1r
8aa	.	.	.
8gg	.	.	.
8ff	.	.	.
8ee	.	.	.
8ccc	.	.	.
8ff#	.	.	.
8ccc	.	.	.
=257	=257	=257	=257
8bb	1r	1r	1r
8gg	.	.	.
8ffn	.	.	.
8ee	.	.	.
8dd	.	.	.
8bb-	.	.	.
8ee	.	.	.
8bb-	.	.	.
=258	=258	=258	=258
8ff	1r	1r	1r
8bb-	.	.	.
8aa	.	.	.
8gg	.	.	.
8aa	.	.	.
8ff	.	.	.
8bbn	.	.	.
8ff	.	.	.
=259	=259	=259	=259
8ee	1r	1r	1r
8gg	.	.	.
8aa	.	.	.
8bb	.	.	.
8ccc	.	.	.
8aa	.	.	.
8ccc	.	.	.
8gg	.	.	.
=260	=260	=260	=260
8ff	1r	1r	1r
8aa	.	.	.
8bb	.	.	.
8ccc	.	.	.
8ddd	.	.	.
8bb	.	.	.
8ddd	.	.	.
8aa	.	.	.
=261	=261	=261	=261
8gg	1r	1r	1r
8bb	.	.	.
8ccc	.	.	.
8ddd	.	.	.
8eee	.	.	.
8ccc	.	.	.
8eee	.	.	.
8bb-	.	.	.
=262	=262	=262	=262
8aa	1r	1r	1r
8ccc	.	.	.
8ddd	.	.	.
8eee	.	.	.
8fff	.	.	.
8ddd	.	.	.
8fff	.	.	.
8ccc	.	.	.
=263	=263	=263	=263
8bb	1r	1r	1r
8ddd	.	.	.
8eee	.	.	.
8fff	.	.	.
8ggg	.	.	.
8eee	.	.	.
8ggg	.	.	.
8ddd	.	.	.
=264	=264	=264	=264
8ccc	1r	1r	1r
8aa	.	.	.
8fff	.	.	.
8ddd	.	.	.
8bb	.	.	.
8gg	.	.	.
8eee	.	.	.
8ccc	.	.	.
=265	=265	=265	=265
8aa	1r	1r	1r
8ff	.	.	.
8ddd	.	.	.
8bb	.	.	.
8gg	.	.	.
8ee	.	.	.
8ccc	.	.	.
8aa	.	.	.
=266	=266	=266	=266
8ff	1r	1r	1r
8ddd	.	.	.
8ccc	.	.	.
8bb	.	.	.
8aa	.	.	.
8ff	.	.	.
8bb	.	.	.
8ff	.	.	.
=267	=267	=267	=267
8ee	1r	1r	1r
8ccc	.	.	.
8bb	.	.	.
8aa	.	.	.
8gg	.	.	.
8ee-	.	.	.
8aa	.	.	.
8ee-	.	.	.
=268	=268	=268	=268
8dd	1r	1r	1r
8bb-	.	.	.
8aa	.	.	.
8gg	.	.	.
8ff#	.	.	.
8dd	.	.	.
8gg	.	.	.
8dd	.	.	.
=269	=269	=269	=269
8cc	1r	1r	1r
8aa	.	.	.
8gg	.	.	.
8ffn	.	.	.
8ee	.	.	.
8cc	.	.	.
8ff#	.	.	.
8cc	.	.	.
=270	=270	=270	=270
8b	1r	1r	1r
8gg	.	.	.
8ff#	.	.	.
8ee	.	.	.
8dd	.	.	.
8cc	.	.	.
8b	.	.	.
8a	.	.	.
=271	=271	=271	=271
8b	1r	1r	1r
8g	.	.	.
8dd	.	.	.
8f#	.	.	.
8g	.	.	.
8d	.	.	.
8b	.	.	.
8g	.	.	.
=272	=272	=272	=272
8dd	1r	1r	1r
8b	.	.	.
8gg	.	.	.
8dd	.	.	.
8b	.	.	.
8g	.	.	.
8d	.	.	.
8B	.	.	.
=273	=273	=273	=273
8G	1r	1r	2r
8a	.	.	.
8g	.	.	.
8f	.	.	.
8e	.	.	4cc
8G	.	.	.
8f	.	.	4dd
8G	.	.	.
=274	=274	=274	=274
8g	1r	1r	4ee
8G	.	.	.
8f	.	.	8dd
8e	.	.	8cc
8d	.	.	4b
8G	.	.	.
8e	.	.	4cc
8G	.	.	.
=275	=275	=275	=275
8f	1r	1r	2dd
8G	.	.	.
8e	.	.	.
8G	.	.	.
8f	.	.	4a
8G	.	.	.
8g	.	.	4b
8f	.	.	.
=276	=276	=276	=276
8e	1r	1r	4cc
8G	.	.	.
8d	.	.	4b
8G	.	.	.
8e	.	.	4cc
8G	.	.	.
4f#	.	.	8dd
.	.	.	8cc
=277	=277	=277	=277
8g	1r	1r	4b
8G	.	.	.
8g	.	.	4cc
8G	.	.	.
8fn	.	.	4dd
8G	.	.	.
8g	.	.	4dd
8G	.	.	.
=278	=278	=278	=278
8a	1r	1r	4cc
8G	.	.	.
8a	.	.	4dd
8G	.	.	.
8g	.	.	4ee
8G	.	.	.
8a	.	.	4ee
8G	.	.	.
=279	=279	=279	=279
8b	1r	1r	4dd
8G	.	.	.
8b-	.	.	4ee
8G	.	.	.
8a	.	.	4ff
8G	.	.	.
8bn	.	.	4ff
8G	.	.	.
=280	=280	=280	=280
8cc	1r	1r	4ee
8G	.	.	.
8cc	.	.	4ff#
8G	.	.	.
8b	.	.	4gg
8G	.	.	.
8b-	.	.	4gg
8G	.	.	.
=281	=281	=281	=281
8a	1r	1r	4aa
8G	.	.	.
4bn	.	.	8gg
.	.	.	8ffn
8cc	.	.	4ee
8G	.	.	.
8cc	.	.	4ff#
8G	.	.	.
=282	=282	=282	=282
8b	1r	1r	4gg
8G	.	.	.
8b	.	.	4gg
8G	.	.	.
8b-	.	.	4dd
8G	.	.	.
8b-	.	.	4ee
8G	.	.	.
=283	=283	=283	=283
8a	1r	1r	4ff
8G	.	.	.
8a	.	.	4ee
8G	.	.	.
8a-	.	.	4ff
8G	.	.	.
4a-	.	.	8gg
.	.	.	8ff
=284	=284	=284	=284
8g	1r	1r	4ee
8G	.	.	.
8f	.	.	4dd
8G	.	.	.
8g	.	.	4ee
8G	.	.	.
8an	.	.	4ee
8g	.	.	.
=285	=285	=285	=285
8f	1r	1r	4ee
8G	.	.	.
8e	.	.	4ee
8G	.	.	.
8f	.	.	4dd
8G	.	.	.
8g	.	.	4dd
8f	.	.	.
=286	=286	=286	=286
8e	1r	1r	4dd
8G	.	.	.
8d	.	.	4dd
8G	.	.	.
8e	.	.	4cc
8G	.	.	.
8g	.	.	8ee
8f	.	.	8dd
=287	=287	=287	=287
8e	1r	4cc	4r
8G	.	.	.
8d	.	4b	4gg
8G	.	.	.
8e	.	4cc	4gg
8G	.	.	.
8e-	.	4a	4ff#
8G	.	.	.
=288	=288	=288	=288
2G	2d	2b	2gg
2r	2g	2r	2r
=289	=289	=289	=289
2r	4a	1r	1r
.	8g	.	.
.	8f	.	.
2c	4e	.	.
.	4f	.	.
=290	=290	=290	=290
2B	2g	1r	1r
2B-	4d	.	.
.	4e	.	.
=291	=291	=291	=291
4A	4f	1r	1r
4G	4e	.	.
4A	4f	.	.
4Bn	8g	.	.
.	8f	.	.
=292	=292	=292	=292
4c	4e	1r	2r
4B	4d	.	.
2A	4e	.	4cc
.	4f#	.	4dd
=293	=293	=293	=293
2G	2g	1r	4ee
.	.	.	8dd
.	.	.	8cc
4G	4g	.	4b
4A	4g	.	4cc
=294	=294	=294	=294
4B	2f#	1r	2dd
4c	.	.	.
2d	2fn	.	4a
.	.	.	4b
=295	=295	=295	=295
2A	4e	1r	4cc
.	4d	.	4b
2A	4e	.	4cc
.	4f#	.	8dd
.	.	.	8cc
=296	=296	=296	=296
2G	4g	1r	2b
.	4fn	.	.
2r	4g	.	[2ee
.	4e	.	.
=297	=297	=297	=297
1r	4f	1r	2ee]
.	4e	.	.
.	4f	.	[2dd
.	4d	.	.
=298	=298	=298	=298
1r	2e	2r	4dd]
.	.	.	4b
.	2e	4ee	2gg
.	.	4dd	.
=299	=299	=299	=299
2A	2e	2cc#	4aa
.	.	.	8gg
.	.	.	8ff
2A	2a	2ccn	4ee
.	.	.	4ff#
=300	=300	=300	=300
2G	2d	2b	2gg
2G	2r	2b-	4dd
.	.	.	4ee
=301	=301	=301	=301
1r	1d	4a	4ff
.	.	4g	4ee
.	.	4a	4ff
.	.	4bn	8gg
.	.	.	8ff
=302	=302	=302	=302
2A	2e	2cc	4ee
.	.	.	4dd
2r	2a	2cc	4ee
.	.	.	4ff
=303	=303	=303	=303
2r	2e	2b	4gg
.	.	.	4ff
2A	2e	2cc#	4gg
.	.	.	8aa
.	.	.	8gg
=304	=304	=304	=304
1r	2d	2dd	4ff
.	.	.	4gg
.	2f	4ccn	2aa
.	.	4dd	.
=305	=305	=305	=305
1r	2e	4ee	2gg#
.	.	8dd	.
.	.	8cc	.
.	2r	4b	2ggn
.	.	4cc#	.
=306	=306	=306	=306
1r	2d	2dd	2ff#
.	2r	4a	2ffn
.	.	4b	.
=307	=307	=307	=307
1r	2a	4cc	2ee
.	.	4b	.
.	2d	4cc	2ff#
.	.	8dd	.
.	.	8cc	.
=308	=308	=308	=308
1r	2g	2b	4r
.	.	.	8gg
.	.	.	8ffn
.	2r	2r	4ee
.	.	.	4dd
=309	=309	=309	=309
1r	1r	4g	4cc#
.	.	2r	8aa
.	.	.	8gg
.	.	.	4aa
.	.	4g	4cc#
=310	=310	=310	=310
1r	1r	4f	4dd
.	.	2.r	8ff
.	.	.	8ee
.	.	.	4dd
.	.	.	4ccn
=311	=311	=311	=311
1r	1r	4f	4b
.	.	2r	8gg
.	.	.	8ff
.	.	.	4gg
.	.	4f	4b
=312	=312	=312	=312
1r	2r	4e	4cc
.	.	4f	4dd
.	2c	2g	2ee
=313	=313	=313	=313
1r	4d	2f#	2a
.	8c	.	.
.	8B	.	.
.	4A	2fn	2dd
.	4B	.	.
=314	=314	=314	=314
1r	2c	2e	8r
.	.	.	8g
.	.	.	8a
.	.	.	8b
.	4G	2e-	2cc
.	4A	.	.
=315	=315	=315	=315
1r	4B-	2d	1r
.	4A	.	.
.	4B-	2en	.
.	8c	.	.
.	8B-	.	.
=316	=316	=316	=316
1r	2A	4f	1r
.	.	4e	.
.	2Bn	4f	.
.	.	8g	.
.	.	8f	.
=317	=317	=317	=317
1r	4c	2e	1r
.	4B	.	.
.	4c	2f#	.
.	8d	.	.
.	8c	.	.
=318	=318	=318	=318
1r	4B	2g	2r
.	4A	.	.
.	2B-	2g	2dd
=319	=319	=319	=319
1r	2A	4a	2cc#
.	.	8g	.
.	.	8f	.
.	2r	4e	2ccn
.	.	4f#	.
=320	=320	=320	=320
1r	2G	2g	2b
.	2r	4d	2b-
.	.	4e	.
=321	=321	=321	=321
1r	2d	4f	2a
.	.	4e	.
.	2G	4f	2bn
.	.	8g	.
.	.	8f	.
=322	=322	=322	=322
1r	4c	4e	4e
.	2.r	2.r	8cc
.	.	.	8b
.	.	.	4a
.	.	.	4g
=323	=323	=323	=323
1r	4c	1r	4f#
.	2r	.	8dd
.	.	.	8cc
.	.	.	4dd
.	4c	.	4f#
=324	=324	=324	=324
1r	4B-	1r	4g
.	2.r	.	8b-
.	.	.	8a
.	.	.	4g
.	.	.	4fn
=325	=325	=325	=325
1r	4B-	1r	4e
.	2r	.	8cc
.	.	.	8b-
.	.	.	4cc
.	4B-	.	4e
=326	=326	=326	=326
1r	4A	1r	4f
.	2.r	.	8a
.	.	.	8g
.	.	.	8f
.	.	.	8g
.	.	.	8e
.	.	.	8f
=327	=327	=327	=327
1r	8B	1r	8d
.	4.r	.	8a
.	.	.	8dd
.	.	.	8cc
.	2r	.	8b
.	.	.	8a
.	.	.	8g
.	.	.	8f
=328	=328	=328	=328
1r	4c	1r	4e
.	2.r	.	8cc
.	.	.	8b
.	.	.	8a
.	.	.	8cc
.	.	.	8ee
.	.	.	8g
=329	=329	=329	=329
1r	8d	1r	8f
.	4.r	.	8a
.	.	.	8ff
.	.	.	8ee
.	2r	.	8dd
.	.	.	8cc
.	.	.	8b
.	.	.	8a
=330	=330	=330	=330
1r	8e	1r	8g
.	4.r	.	{16a
.	.	.	16b
.	.	.	8cc}
.	.	.	8dd
.	2r	.	8ee
.	.	.	8ff
.	.	.	8gg
.	.	.	8b-
=331	=331	=331	=331
1r	8f	1r	8a
.	4.r	.	8ee
.	.	.	8aa
.	.	.	8gg
.	2r	.	{8ff
.	.	.	16gg
.	.	.	16aa}
.	.	.	{8dd
.	.	.	16ee
.	.	.	16ff}
=332	=332	=332	=332
1r	8f	2r	8b
.	4.r	.	8dd
.	.	.	8ee
.	.	.	8ff
.	4e	4cc	2gg
.	4d	4b-	.
=333	=333	=333	=333
2r	8c#	8e	8a
.	4.r	4.r	8aa
.	.	.	8gg
.	.	.	8ff
4cn	4e	4a	4ee
4r	4r	4r	4ff#
=334	=334	=334	=334
8B	1r	8g	8dd
4.r	.	4.r	8gg
.	.	.	8ffn
.	.	.	8ee
4B-	.	4g	4dd
4r	.	4r	4ee
=335	=335	=335	=335
4A	4f	4cc	4ee
2.r	2.r	2.r	8ff
.	.	.	8ee
.	.	.	4ff
.	.	.	8gg
.	.	.	8ff
=336	=336	=336	=336
4G	4g	4cc	4ee
2.r	8g	2.r	2.r
.	8f	.	.
.	4g	.	.
.	8a	.	.
.	8g	.	.
=337	=337	=337	=337
1r	4f	4a	4ee
.	8f	2.r	4r
.	8e	.	.
.	4f	.	4dd
.	8g	.	4r
.	8f	.	.
=338	=338	=338	=338
1r	4e	2r	4dd
.	2.r	.	8cc
.	.	.	8b
.	.	4a	4cc
.	.	4r	8dd
.	.	.	8ee
=339	=339	=339	=339
1r	4d	4cc	4ff
.	4r	4r	8ff
.	.	.	8ee
.	4g	4b	4ff
.	4r	4r	8gg
.	.	.	8ff
=340	=340	=340	=340
1r	4r	4cc	4ee
.	8c	2.r	2.r
.	8d	.	.
.	8e	.	.
.	8g	.	.
.	8f	.	.
.	8a	.	.
=341	=341	=341	=341
4r	4g	4cc	4ee
8B-	2r	2r	2r
8A	.	.	.
4B-	.	.	.
4r	4g	4cc	4ee
=342	=342	=342	=342
4A	4a	4cc	4ff
2.r	8d	2.r	2.r
.	8e	.	.
.	8f	.	.
.	8g	.	.
.	8f	.	.
.	8g	.	.
=343	=343	=343	=343
4r	4a	4dd	4ff#
8c	2r	2r	2r
8B	.	.	.
4c	.	.	.
4r	4a	4cc	4ff#
=344	=344	=344	=344
4r	1r	4b	4gg
4B	.	4r	4r
4e	.	2b	2gg
4d	.	.	.
=345	=345	=345	=345
4c#	2e	2a	2gg
4A	.	.	.
4d	2r	2a	2ff
4cn	.	.	.
=346	=346	=346	=346
4B	2g	2dd	2ff
4G	.	.	.
4c	2g	2cc	2ee
4B-	.	.	.
=347	=347	=347	=347
4A	4f	4cc	4ee
2.r	2.r	2.r	8dd
.	.	.	8ee
.	.	.	8ff
.	.	.	8gg
.	.	.	8aa
.	.	.	8cc
=348	=348	=348	=348
8G	8f	1r	8b
4.r	4.r	.	{8dd
.	.	.	8cc
.	.	.	8b
2r	2r	.	8a
.	.	.	8g
.	.	.	8f}
.	.	.	8dd
=349	=349	=349	=349
1r	1r	1r	8gg
.	.	.	8b
.	.	.	8cc
.	.	.	8e
.	.	.	{8d
.	.	.	8cc
.	.	.	8ff}
.	.	.	8b
=350	=350	=350	=350
8A-	8e-	1r	8cc
4.r	4.r	.	8dd
.	.	.	8ee-
.	.	.	8ff
2r	2r	.	8gg
.	.	.	8aan
.	.	.	8bbn
.	.	.	8ccc
=351	=351	=351	=351
1r	1r	1r	8ff#
.	.	.	{8ee-
.	.	.	8dd
.	.	.	8cc
.	.	.	8b
.	.	.	8cc}
.	.	.	8f#
.	.	.	8An
=352	=352	=352	=352
1r	1r	1r	8G
.	.	.	8c
.	.	.	8e
.	.	.	8g
.	.	.	8cc
.	.	.	8ee
.	.	.	8gg
.	.	.	8ee
=353	=353	=353	=353
1r	2.r	2.r	8cc
.	.	.	8g
.	.	.	8e
.	.	.	8c
.	.	.	4G
.	4f	4b	4r
=354	=354	=354	=354
2c;	2e;	2cc;	2gg;
==	==	==	==
*-	*-	*-	*-
